X:4725
L:1/8
M:6/8
K:D
 a |{g} f>ed d'c'b | (af)d TA2 G | FAd (f/g/a).f | eee e2 a |{g} f>ed d'c'b |{af} d TA2 (G | 
 F)Ad gfe | .d.d.d d2 :: e | cea gfe | dfa d'c'b | afa (b/c'/d').c' | .b.b.b Tb2 c' | 
 d'af (b/c'/d').b | afd B2 (d | A)FA gfe | .d.d.d d2 :|

